src/view/frontend/web/svg/heroicons/outline/map.svg

<svg  viewBox="0 0 24 24" fill="none" stroke="currentColor" xmlns="http://www.w3.org/2000/svg">
<path d="M9 20L3.55279 17.2764C3.214 17.107 3 16.7607 3 16.382V5.61803C3 4.87465 3.78231 4.39116 4.44721 4.72361L9 7M9 20L15 17M9 20V7M15 17L19.5528 19.2764C20.2177 19.6088 21 19.1253 21 18.382V7.61803C21 7.23926 20.786 6.893 20.4472 6.72361L15 4M15 17V4M15 4L9 7"  stroke-width="2" stroke-linecap="round" stroke-linejoin="round"/>
</svg>

<svg xmlns="http://www.w3.org/2000/svg" fill="none" stroke="currentColor" viewBox="0 0 24 24"><path stroke-linecap="round" stroke-linejoin="round" stroke-width="2" d="m9 20-5.447-2.724A1 1 0 0 1 3 16.382V5.618a1 1 0 0 1 1.447-.894L9 7m0 13 6-3m-6 3V7m6 10 4.553 2.276A1 1 0 0 0 21 18.382V7.618a1 1 0 0 0-.553-.894L15 4m0 13V4m0 0L9 7"/></svg>
